icons/trophy-line.svg

<svg xmlns="http://www.w3.org/2000/svg" width="24" height="24" fill="none"><g clip-path="url(#a)"><g><path fill="#121212" d="M13 16.938V19H18V21H6V19H11V16.938C9.0667 16.6942 7.28882 15.7533 6 14.2917C4.71119 12.8302 4.00003 10.9486 4 9V3H20V9C20 10.9486 19.2888 12.8302 18 14.2917C16.7112 15.7533 14.9333 16.6942 13 16.938ZM6 5V9C6 10.5913 6.63214 12.1174 7.75736 13.2426C8.88258 14.3679 10.4087 15 12 15C13.5913 15 15.1174 14.3679 16.2426 13.2426C17.3679 12.1174 18 10.5913 18 9V5H6ZM1 5H3V9H1V5ZM21 5H23V9H21V5Z"/></g></g><defs><clipPath id="a"><rect width="24" height="24" fill="white"/></clipPath></defs></svg>

<svg width="24" height="24" fill="none" xmlns="http://www.w3.org/2000/svg"><g clip-path="url(#a)"><path d="M13 16.938V19h5v2H6v-2h5v-2.062A8 8 0 0 1 4 9V3h16v6a8 8 0 0 1-7 7.938ZM6 5v4a6 6 0 1 0 12 0V5H6ZM1 5h2v4H1V5Zm20 0h2v4h-2V5Z" /></g><defs><clipPath id="a"><path fill="#fff" d="M0 0h24v24H0z"/></clipPath></defs></svg>
